X:1
T:Norsk Wals
T:Norsk Wals
T:Hans Hagerup Falbe 1772-1830
T: 
C:Hans Hagerup Falbe
%%score { ( 1 4 ) | ( 2 3 ) }
L:1/8
Q:1/4=144
M:3/4
K:Bb
V:1 treble nm="Piano" snm="Pno."
V:4 treble 
V:2 bass 
V:3 bass 
V:1
"^Allegro" [df]2 | z2 [Bd][ce] [df]2 | z2 [Bd][ce] [df]2 | z2 ([Bd][ce]) [df]2 | %4
{g} [df]2 [ce]2 [Bd]2 | z2 [Ac][Bd] [ce]2 | z2 [Ac][Bd] [ce]2 | z2 [Ac][Bd] [ce]2 | %8
{f} [ce]2 [Bd]2 [Ac]2 | ba bf dB | GB eg b2 | gf =ef ga | b2 z2 :: f2 | d2 f2 b2 | d'2 c'2 b2 | %16
 a2 b2 c'2 | f2 g2 a2 | b2 f2 d'2 | d'2 c'b ag | f2 g2 a2 | b2 z2!fine! ::[K:F] Ac | fe dc BA | %24
 (c2 B) z Be | gf ed cB | B2 A z cf | a2 a2 a2 | ga ba gf | fe dc de | f2 z2 ::[K:Bb] FB | %32
 d3 c B2 |{c} B2 A2 B2 | [gb]3 [fa] [eg]2 | [eg]2 [d^f]2 [eg]2 | [ce]3 [Bd] [Ac]2 | %37
 [Ac]2 [^G=B]2 [Ac]2 | [cc']3 [_B_b] [Aa]2 | [Aa]2 [Gg]2 [Ff]2 | [Fd]3 c B2 | B2 A2 B2 | c2 A2 f2 | %43
 d2 B2 g2 | f2 =e2 d2 | c2 d2 =e2 | f=e fe fe | f^f ag =f_e | dc ed cB | AB =Bc ^cd | e=e f^f ga | %51
 b2 z2 z2 | B2 A2 B2 | [gb]3 [fa] [eg]2 | [eg]2 [d^f]2 [eg]2 | [ce]3 [Bd] [Ac]2 | %56
 [Ac]2 [^G=B]2 [Ac]2 | [cc']3 [Bb] [Aa]2 | [Aa]2 [Gg]2 [Ff]2 | [Ff]3 [Gg] [Ff]2 | %60
 [Ff]3 [Gg] [Ff]2 | [Ff]2 [dd']2 [Bb]2 | [Gg]2 e2 c2 | [Ff]2 d2 f2 | [Fe]2 c2 A2 | %65
!p! [B,B][B,B] [B,B][B,B] [A,A][A,A] | %66
 [B,B]"_cresc.                                                 poco a poco"[B,B] [B,B][B,B] [=B,=B][B,B] | %67
 [Cc][Cc] [Cc][Cc] [=B,=B][B,B] | [Cc][Cc] [Cc][Cc] [^C^c][Cc] |!f! [Dd]3 D ^FA | %70
 [^FAd]2 [FAd]2 [FAd]2 | [GBd]3 G Bd | [Bdg]2 [Bdg]2 [Bdg]2 | [Ad^f]3 D ^FA | %74
 [^FAd]2 [FAd]2 [FAd]2 | [GBd]3 G Bd | [Bdg]2 [Bdg]2 [Bdg]2 |!ff! ([Ad^f]a) [df][df] [df][df] | %78
 ([Ad^f]a) [df][df] [df][df] | ([Bg]d) [Bd][Bd] [Bd][Bd] | ([Ac]e) [Ac][Ac] [Ac][Ac] | %81
 ([GB]d) [GB][GB] [GB][GB] | ([^FA]c) [FA][FA] [FA][FA] | ([GBg]d) [Bd][Bd] [Bd][Bd] | %84
 ([Ac]e) [Ac][Ac] [Ac][Ac] | ([GB]d) [GB][GB] [GB][GB] |!>(! ([^FA]c) [FA][FA] [FA][FA]!>)! | %87
!p! G2 B2"_dim." B2 | B2 A2 G2 | ^F2 [A^f]2 [Af]2 | [ca]2 [Bg]2 [A^f]2 | [Gg]2 B2 B2 | B2 A2 G2 | %93
 ^F2 [A^f]2 [Af]2 | [ca]2 [Bg]2 [A^f]2 | [Bg]2!p! d2 d2 | (d3 e) d2 | z2 d2 d2 | %98
"_morendo" (d3 e) d2 | (d6 | g2) z2!D.C.! |] %101
V:2
 z2 | B,,2 [B,DF]2 [B,DF]2 | B,,2 [B,DF]2 [B,DF]2 | B,,2 [B,DF]2 [B,DF]2 | [DF]2 [CE]2 [B,D]2 | %5
 F,,2 [F,A,C]2 [F,A,C]2 | F,,2 [F,A,C]2 [F,A,C]2 | F,,2 [F,A,C]2 [F,A,C]2 | [CE]2 [B,D]2 [A,C]2 | %9
 [D,F,B,D]2 [D,F,B,D]2 [D,F,B,D]2 | [E,G,B,E]2 [E,G,B,E]2 [E,G,B,E]2 | %11
 [F,A,CE]2 [F,A,CE]2 [F,A,CE]2 | [B,D]2 z2 :: z2 | z2 [DF]2 [DF]2 | z2 [DF]2 [DF]2 | %16
 z2 [CE]2 [CE]2 | z2 [CE]2 [CE]2 | z2 [DF]2 [DF]2 | z2 [G,C]2 [G,C]2 | z2 [CE]2 [CE]2 | %21
 [B,D]2 z2 ::[K:F] z2 | [F,A,C]2 [F,A,C]2 [F,A,C]2 | [G,B,C]2 [G,B,C]2 [G,B,C]2 | %25
 [C,E,G,C]2 [C,E,G,C]2 [C,E,G,C]2 | [F,A,C]2 [F,A,C]2 [F,A,C]2 | [F,A,C]2 [F,A,C]2 [F,A,C]2 | %28
 [B,,D,G,]2 [B,,D,G,]2 [B,,D,G,]2 | [C,G,B,]2 [C,G,B,]2 [C,G,B,]2 | [F,A,]2 z2 ::[K:Bb] z2 | %32
 [B,DF]2 [B,DF]2 [B,DF]2 | [B,DF]2 [B,DF]2 [B,DF]2 | [B,EG]2 [B,EG]2 [B,EG]2 | %35
 [B,EG]2 [B,EG]2 [B,EG]2 | [F,CE]2 [F,CE]2 [F,CE]2 | [F,CE]2 [F,CE]2 [F,CE]2 | %38
 [F,A,C]2 [F,A,C]2 [F,A,C]2 | [F,A,C]2 [F,A,C]2 [F,A,C]2 | B,,2 [B,DF]2 [B,DF]2 | %41
 [B,DF]2 [B,DF]2 [B,DF]2 | [F,A,CF]2 [F,A,CF]2 [F,A,CF]2 | [B,DF]2 [B,DF]2 [B,D]2 | %44
 [C,G,B,]2 [C,G,B,]2 [C,G,B,]2 | [C,G,B,]2 [C,G,B,]2 [C,G,B,]2 | [F,,A,]2 [F,A,C]2 [F,A,C]2 | %47
 [F,A,C]6 | [F,B,D]6 | [F,CE]6 | [F,CE]2 z2 z2 | B,,2 [B,DF]2 [B,DF]2 | [B,DF]2 [B,DF]2 [B,DF]2 | %53
 [B,EG]2 [B,EG]2 [B,EG]2 | [B,EG]2 [B,EG]2 [B,EG]2 | [F,CE]2 [F,CE]2 [F,CE]2 | %56
 [F,CE]2 [F,CE]2 [F,CE]2 | [F,A,C]2 [F,A,C]2 [F,A,C]2 | [F,A,C]2 [F,A,C]2 [F,A,C]2 | %59
 [F,B,D]2 [F,B,D]2 [F,B,D]2 | [F,A,CE]2 [F,A,CE]2 [F,A,CE]2 | [B,D]2 [B,D]2 [B,D]2 | %62
 [E,G,B,E]2 [E,G,B,E]2 [E,G,B,E]2 | [F,B,D]2 [F,B,D]2 [F,B,D]2 | [F,A,C]2 [F,A,C]2 [F,A,C]2 | %65
 [B,,,B,,]2 [B,,,B,,]2 [A,,,A,,]2 | [B,,,B,,]2 [B,,,B,,]2 [=B,,,=B,,]2 | %67
 [C,,C,]2 [C,,C,]2 [=B,,,=B,,]2 | [C,,C,]2 [C,,C,]2 [^C,,^C,]2 | [D,,D,]2 [D,^F,A,]2 [D,F,A,]2 | %70
 [D,^F,A,]2 [D,F,A,]2 [D,F,A,]2 | [D,G,B,]2 [D,G,B,]2 [D,G,B,]2 | [D,G,B,]2 [D,G,B,]2 [D,G,B,]2 | %73
 [D,^F,A,]2 [D,F,A,]2 [D,F,A,]2 | [D,^F,A,]2 [D,F,A,]2 [D,F,A,]2 | [D,G,B,]2 [D,G,B,]2 [D,G,B,]2 | %76
 [D,G,B,]2 [D,G,B,]2 [D,G,B,]2 | [D,^F,A,]2 [D,F,A,]2 [D,F,A,]2 | [D,^F,A,]2 [D,F,A,]2 [D,F,A,]2 | %79
 [G,,B,,D,G,]2 [G,,B,,D,G,]2 [G,,B,,D,G,]2 | [C,E,A,]2 [C,E,A,]2 [C,E,A,]2 | %81
 [D,G,B,]2 [D,G,B,]2 [D,G,B,]2 | [D,^F,A,]2 [D,F,A,]2 [D,F,A,]2 | %83
 [G,,B,,D,G,]2 [G,,B,,D,G,]2 [G,,B,,D,G,]2 | [C,E,A,]2 [C,E,A,]2 [C,E,A,]2 | %85
 [D,G,B,]2 [D,G,B,]2 [D,G,B,]2 | [D,A,C]2 [D,A,C]2 [D,A,C]2 | B,2 D2 D2 | D2 C2 B,2 | %89
"_Hans Hagerup Falbe ble utnevnt som justitiarius ved Akershus stiftsoverrett i 1808. \nMellom 1815 og 1822 var Falbe amtmann i Akershus amt og stiftsamtmann i Akershus stiftamt." A,2 D2 D2 | %90
 D2 D2 D2 | B,2 D2 D2 | D2 C2 B,2 | A,2 D2 D2 | D2 D2 D2 | z2 [B,D]2 [B,D]2 | %96
 z2 [^F,A,D]2 [F,A,D]2 | z2 [B,D]2 [B,D]2 | z2 [^F,A,D]2 [F,A,D]2 | [G,B,D]6- | [G,B,D]2 z2 |] %101
V:3
 x2 | x6 | x6 | x6 | x6 | x6 | x6 | x6 | F,4 F,2 | x6 | x6 | x6 | x4 :: x2 | B,6 | B,6 | F,6 | %17
 F,6 | B,6 | E,6 | F,6 | x4 ::[K:F] x2 | x6 | x6 | x6 | x6 | x6 | x6 | x6 | x4 ::[K:Bb] x2 | x6 | %33
 x6 | x6 | x6 | x6 | x6 | x6 | x6 | x6 | x6 | x6 | x6 | x6 | x6 | x6 | x6 | x6 | x6 | x6 | x6 | %52
 x6 | x6 | x6 | x6 | x6 | x6 | x6 | x6 | x6 | x6 | x6 | x6 | x6 | x6 | x6 | x6 | x6 | x6 | x6 | %71
 x6 | x6 | x6 | x6 | x6 | x6 | x6 | x6 | x6 | x6 | x6 | x6 | x6 | x6 | x6 | x6 | G,6 | G,6 | D,6 | %90
 D,6 | G,6 | G,6 | D,6 | D,6 | G,6 | D,6 | G,6 | D,6 | x6 | x4 |] %101
V:4
 x2 | x6 | x6 | x6 | x6 | x6 | x6 | x6 | x6 | x6 | x6 | x6 | x4 :: x2 | x6 | x6 | x6 | x6 | x6 | %19
 x6 | x6 | x4 ::[K:F] x2 | x6 | x6 | x6 | x6 | x6 | x6 | x6 | x4 ::[K:Bb] x2 | x6 | x6 | x6 | x6 | %36
 x6 | x6 | x6 | x6 | x6 | x6 | x6 | x6 | x6 | x6 | x6 | x6 | x6 | x6 | x6 | d3 c B2 | x6 | x6 | %54
 x6 | x6 | x6 | x6 | x6 | x6 | x6 | x6 | x6 | x6 | x6 | x6 | x6 | x6 | x6 | x6 | x6 | x6 | x6 | %73
 x6 | x6 | x6 | x6 | x6 | x6 | x6 | x6 | x6 | x6 | x6 | x6 | x6 | x6 | x6 | x6 | x6 | x6 | x6 | %92
 x6 | x6 | x6 | x6 | x6 | x6 | x6 | x6 | x4 |] %101

